src/public/img/history/updates.svg

<svg width="80" height="80" viewBox="0 0 80 80" fill="none" xmlns="http://www.w3.org/2000/svg">
<rect x="1" y="1" width="78" height="78" rx="39" fill="white"/>
<g clip-path="url(#clip0_1274:6219)">
<path fill-rule="evenodd" clip-rule="evenodd" d="M53.9872 27.2896C53.9872 26.6695 53.4845 26.1669 52.8644 26.1669C47.6975 26.1669 42.7422 28.2194 39.0887 31.873L35.7599 35.2017L35.7557 35.206L27.2029 43.7587L27.2029 43.7587L36.3953 52.9511L36.3953 52.9511L44.9523 44.3941L45.5877 43.7587L45.5894 43.757L48.2811 41.0653C51.9346 37.4118 53.9872 32.4565 53.9872 27.2896ZM41.0299 57.5857L38.5166 55.0724L38.5166 55.0724L41.9724 51.6167L41.0299 57.5857ZM45.2494 50.0978C45.4636 48.7409 46.1023 47.4868 47.0736 46.5154L47.709 45.88L50.4024 43.1867C54.6185 38.9705 56.9872 33.2522 56.9872 27.2896C56.9872 25.0127 55.1414 23.1669 52.8644 23.1669C46.9019 23.1669 41.1835 25.5355 36.9674 29.7516L34.2757 32.4433L34.274 32.445L33.6351 33.0839C32.6642 34.0533 31.4114 34.6907 30.0562 34.9046L19.1908 36.6202C18.6335 36.7082 18.1727 37.1015 17.9982 37.638C17.8238 38.1745 17.9651 38.7636 18.3641 39.1625L24.0209 44.8194L22.6067 46.2336C22.0209 46.8194 22.0209 47.7691 22.6067 48.3549C23.1925 48.9407 24.1422 48.9407 24.728 48.3549L26.1422 46.9407L28.2636 49.062L24.0209 53.3047C23.4351 53.8905 23.4351 54.8402 24.0209 55.426C24.6067 56.0118 25.5565 56.0118 26.1422 55.426L30.3849 51.1834L32.5062 53.3047L31.092 54.7189C30.5062 55.3047 30.5062 56.2544 31.092 56.8402C31.6778 57.426 32.6275 57.426 33.2133 56.8402L34.6275 55.426L40.9915 61.79C41.3904 62.1889 41.9795 62.3302 42.516 62.1558C43.0525 61.9813 43.4458 61.5205 43.5338 60.9632L45.2494 50.0978ZM25.0816 41.6374L25.0816 41.6374L28.5374 38.1816L22.5683 39.1241L25.0816 41.6374ZM44.1735 35.9805C45.3451 37.1521 47.2445 37.1521 48.4161 35.9805C49.5877 34.8089 49.5877 32.9094 48.4161 31.7379C47.2445 30.5663 45.3451 30.5663 44.1735 31.7379C43.0019 32.9094 43.0019 34.8089 44.1735 35.9805Z" fill="#F65128"/>
</g>
<rect x="1" y="1" width="78" height="78" rx="39" stroke="#F65128" stroke-width="2"/>
<defs>
<clipPath id="clip0_1274:6219">
<rect width="48" height="48" fill="white" transform="translate(16 16)"/>
</clipPath>
</defs>
</svg>

<svg xmlns="http://www.w3.org/2000/svg" width="80" height="80" fill="none">
  <rect width="78" height="78" x="1" y="1" fill="#fff" rx="39"/>
  <g clip-path="url(#a)">
    <path fill="#F65128" fill-rule="evenodd" d="M53.987 27.29c0-.62-.503-1.123-1.123-1.123a19.481 19.481 0 0 0-13.775 5.706l-3.33 3.329-.003.004-8.553 8.553 9.192 9.192 8.557-8.557.636-.635.001-.002 2.692-2.692a19.482 19.482 0 0 0 5.706-13.775ZM41.03 57.586l-2.513-2.514 3.455-3.455-.942 5.969Zm4.22-7.488a6.5 6.5 0 0 1 1.824-3.583l.635-.635 2.693-2.693a22.482 22.482 0 0 0 6.585-15.897 4.123 4.123 0 0 0-4.123-4.123 22.482 22.482 0 0 0-15.897 6.585l-2.691 2.691-.002.002-.639.639a6.5 6.5 0 0 1-3.579 1.82L19.191 36.62a1.5 1.5 0 0 0-.827 2.543l5.657 5.656-1.414 1.415a1.5 1.5 0 1 0 2.121 2.12l1.414-1.413 2.122 2.121-4.243 4.243a1.5 1.5 0 1 0 2.121 2.121l4.243-4.243 2.121 2.122-1.414 1.414a1.5 1.5 0 1 0 2.121 2.121l1.414-1.414 6.364 6.364a1.5 1.5 0 0 0 2.543-.827l1.715-10.865Zm-20.168-8.46 3.455-3.456-5.969.942 2.514 2.513Zm19.091-5.657a3 3 0 1 0 4.243-4.243 3 3 0 0 0-4.242 4.242Z" clip-rule="evenodd"/>
  </g>
  <rect width="78" height="78" x="1" y="1" stroke="#F65128" stroke-width="2" rx="39"/>
  <defs>
    <clipPath id="a">
      <path fill="#fff" d="M16 16h48v48H16z"/>
    </clipPath>
  </defs>
</svg>
